assets/img/braze_icons/arrow-circle-broken-down.svg

<svg fill="none" height="24" viewBox="0 0 24 24" width="24" xmlns="http://www.w3.org/2000/svg"><path d="m9.27574 1.33995c.49915-.12718.74876-.19077 1.01656-.10893.2137.06532.4462.24602.5623.437.1454.2393.1454.53536.1454 1.12748v10.7903l-2.29289-2.2929c-.39053-.3905-1.02369-.3905-1.41422 0-.39052.3905-.39052 1.0237 0 1.4142l4.00001 4c.3905.3905 1.0237.3905 1.4142 0l4-4c.3905-.3905.3905-1.0237 0-1.4142s-1.0237-.3905-1.4142 0l-2.2929 2.2929v-10.7903c0-.59212 0-.88818.1454-1.12748.1161-.19098.3486-.37168.5623-.437.2678-.08184.5174-.01825 1.0166.10893 4.7574 1.21214 8.2757 5.52522 8.2757 10.66005 0 6.0751-4.9249 11-11 11-6.07513 0-11-4.9249-11-11 0-5.13483 3.51831-9.44791 8.27574-10.66005z" fill="#801ed7"/></svg>

<svg width="24" height="24" viewBox="0 0 24 24" fill="none" xmlns="http://www.w3.org/2000/svg">
<path d="M9.27574 1.33995C9.77489 1.21277 10.0245 1.14918 10.2923 1.23102C10.506 1.29634 10.7385 1.47704 10.8546 1.66802C11 1.90732 11 2.20338 11 2.7955L11 13.5858L8.70711 11.2929C8.31658 10.9024 7.68342 10.9024 7.29289 11.2929C6.90237 11.6834 6.90237 12.3166 7.29289 12.7071L11.2929 16.7071C11.6834 17.0976 12.3166 17.0976 12.7071 16.7071L16.7071 12.7071C17.0976 12.3166 17.0976 11.6834 16.7071 11.2929C16.3166 10.9024 15.6834 10.9024 15.2929 11.2929L13 13.5858L13 2.7955C13 2.20338 13 1.90732 13.1454 1.66802C13.2615 1.47704 13.494 1.29634 13.7077 1.23102C13.9755 1.14918 14.2251 1.21277 14.7243 1.33995C19.4817 2.55209 23 6.86517 23 12C23 18.0751 18.0751 23 12 23C5.92487 23 1 18.0751 1 12C1 6.86517 4.51831 2.55209 9.27574 1.33995Z" fill="#801ED7"/>
</svg>
